packages/core/src/svgs/tokens/mono/IBAT.svg

<svg width="24" height="24" viewBox="0 0 24 24" fill="none" xmlns="http://www.w3.org/2000/svg">
<path d="M9.59522 21.9493C10.5609 21.805 11.4572 21.3621 12.1586 20.6827C12.8248 20.0868 13.3222 19.3259 13.6009 18.4768C13.9283 17.5132 14.0131 16.8647 14.0131 15.1315V13.7982H14.4313C15.4251 13.7982 17.0371 13.6165 17.8735 13.4105C18.4828 13.3011 19.0665 13.0792 19.5945 12.7559C21.6793 11.4045 22.4368 9.42288 21.758 7.10176C21.661 6.76239 21.6247 6.73814 21.5581 6.95631C21.3907 7.52462 21.1716 8.07638 20.9035 8.60468C20.5823 9.27398 20.1289 9.87142 19.5706 10.361C19.0124 10.8505 18.3608 11.222 17.6553 11.453C16.7826 11.7439 16.1584 11.8348 14.6434 11.8893L13.9283 11.9197L13.8979 11.6772C13.8775 11.2047 13.8756 10.7317 13.8918 10.2592C13.9101 9.25913 13.9283 9.0046 14.0071 8.66529C14.3343 7.23508 15.0252 6.35029 16.116 5.97455C16.3705 5.88971 16.5402 5.86547 16.9766 5.85335C17.2796 5.84123 17.5098 5.81093 17.4856 5.79274C17.4008 5.7079 16.7765 5.62306 16.0736 5.59275C15.2503 5.52571 14.4227 5.65018 13.6555 5.95638C13.098 6.16242 12.7768 6.36848 12.6374 6.61089C12.354 7.16812 12.1637 7.76789 12.0738 8.38652C11.9828 8.7865 11.9162 10.0895 11.9526 11.0591L11.9828 11.9439L11.2072 11.9682C7.5953 12.1075 5.29847 13.0953 4.43792 14.877C4.10059 15.5391 3.95373 16.2817 4.01371 17.0223C4.01371 17.6042 4.02583 17.9435 4.08038 18.2101C4.18946 18.7798 4.42581 19.301 4.79548 19.8464C5.01971 20.1675 5.41969 20.5918 5.46211 20.5493C5.28182 19.6789 5.22875 18.7869 5.30454 17.9011C5.36515 17.5132 5.50453 17.0647 5.64391 16.7496C5.70452 16.6285 5.75299 16.5073 5.75299 16.489C5.75299 16.38 6.32266 15.6528 6.63779 15.3619C7.46842 14.6291 8.49751 14.1588 9.59522 14.0103C10.0255 13.9377 11.995 13.8043 12.0374 13.8528C12.0981 13.9013 12.1586 15.1437 12.1344 15.6952C12.1042 16.4224 11.9345 17.4526 11.789 17.8163C11.5586 18.3798 11.3345 18.7252 10.9466 19.1009C10.6983 19.3639 10.3985 19.5728 10.066 19.7146C9.73323 19.8563 9.37497 19.928 9.0134 19.9252C8.51039 19.9252 8.22556 19.8645 7.72863 19.6343C7.27758 19.4195 6.8832 19.1019 6.57719 18.7071L6.37113 18.4041C6.23781 18.2222 6.06206 17.6768 6.02571 17.3375L5.98934 17.0223L5.89844 17.198C5.84995 17.289 5.73482 17.5496 5.65603 17.7738C5.51058 18.1677 5.50453 18.192 5.51058 18.8646C5.51058 19.5434 5.51058 19.5495 5.67422 19.9676C5.8035 20.3575 6.0156 20.7148 6.29595 21.015C6.57628 21.3152 6.91823 21.5512 7.29835 21.7069C8.04982 21.9797 8.81946 22.0645 9.59522 21.9493ZM3.39557 17.9677C3.21377 16.4951 3.57738 15.0709 4.47429 13.7619C5.08031 12.8771 6.43174 11.956 7.79529 11.5075C8.26193 11.3499 9.41336 11.0288 10.3345 10.7985L10.8981 10.659L10.9466 10.441C11.3223 8.70771 11.6193 7.59263 11.8375 7.14418L11.9587 6.84116C12.2617 6.09576 12.9768 5.15642 13.6373 4.63524C14.4914 3.97877 15.4879 3.53243 16.5463 3.3323C17.0917 3.23533 17.9159 3.2111 18.3826 3.26564C18.6006 3.28987 18.7885 3.30199 18.8007 3.28987C18.6238 3.08536 18.42 2.90593 18.1946 2.75658C17.6164 2.37722 16.9633 2.1271 16.2796 2.02329C15.3907 1.94193 14.4956 2.0814 13.6738 2.42933C12.9102 2.7687 12.0133 3.45956 11.4557 4.12619C10.7762 4.97573 10.2827 5.9585 10.0073 7.01085C9.92852 7.30175 9.47998 9.21077 9.47998 9.24104C9.47998 9.29562 8.97703 9.47124 8.20739 9.68335C7.0229 9.97747 5.88487 10.4344 4.82578 11.0408C4.35334 11.301 3.92068 11.6275 3.54102 12.0106C2.927 12.5773 2.45919 13.2842 2.17747 14.071L2.05627 14.4952C1.98971 14.992 1.98971 15.4954 2.05627 15.9921L2.17747 16.4405C2.26231 16.7799 2.6138 17.4889 2.84409 17.8102C3.0259 18.0647 3.40162 18.4587 3.43193 18.4283C3.44405 18.4222 3.43193 18.2101 3.39557 17.9616V17.9677ZM21.4126 6.4109C21.3521 6.05941 20.7036 5.30187 20.0309 4.80493C19.1839 4.13587 18.1347 3.77471 17.0553 3.78076C16.3509 3.76327 15.6532 3.92157 15.0252 4.24133C14.6434 4.42314 14.0434 4.82917 13.8374 5.04129C13.7162 5.16249 13.7282 5.17461 14.0615 5.10795C14.6978 4.98674 15.1645 4.93826 15.8797 4.91401C17.5341 4.85342 18.6249 5.06553 19.9218 5.68973C20.3703 5.90789 21.2914 6.47755 21.2914 6.53209C21.2914 6.55028 21.3277 6.56846 21.3641 6.56846C21.4247 6.56846 21.4308 6.53816 21.4126 6.4109Z" fill="white"/>
<path d="M3.46838 16.0708C3.34057 16.6948 3.316 17.3357 3.39566 17.9676C3.42596 18.2161 3.44413 18.4282 3.43201 18.4342C3.40171 18.4645 3.02598 18.0707 2.84418 17.8162C2.56197 17.3912 2.33778 16.9307 2.17755 16.4465L2.06241 16.0405L2.05029 15.9981C2.01048 15.7579 1.99425 15.5142 2.0018 15.2709C2.55912 15.3863 3.06956 15.6647 3.46838 16.0708Z" fill="white"/>
<path d="M8.63148 13.6103C11.9525 13.1497 12.8616 13.3619 12.1161 14.5799C12.1147 14.3354 12.0884 14.0918 12.0373 13.8527C11.9949 13.8042 10.0254 13.9375 9.5951 14.0102C8.49738 14.1587 7.46829 14.629 6.63767 15.3617C6.28912 15.6921 5.99101 16.0719 5.75287 16.4889C5.75287 16.5131 5.70439 16.6283 5.64379 16.7495C5.57106 15.6405 6.08012 13.9618 8.63148 13.6103ZM14.013 14.6041V13.7921H14.4312C15.4249 13.7921 17.037 13.6103 17.8734 13.4104C18.4827 13.3009 19.0664 13.079 19.5944 12.7558C20.4335 12.2433 21.1151 11.5094 21.564 10.6347C21.2913 10.5135 20.655 10.9862 19.958 11.5134C19.443 11.9013 18.8915 12.3194 18.4308 12.5315C17.7703 12.8346 16.6188 13.0345 15.6129 13.2103C14.6372 13.38 13.7948 13.5255 13.6432 13.7193C13.4675 13.9618 13.7342 14.3254 14.0069 14.6041H14.013ZM13.5947 4.05938C14.1298 3.85284 14.6946 3.73414 15.2674 3.70789C14.6735 3.9503 14.1038 4.26542 13.6372 4.63509C13.2296 4.97128 12.8688 5.36059 12.5646 5.79259C12.5161 5.27142 12.6675 4.38663 13.5947 4.05938ZM10.0435 10.0106C10.4859 9.7802 10.8192 9.8287 11.0494 9.97421L10.9465 10.4408L10.898 10.6589L10.3344 10.7983C9.41324 11.0347 8.2618 11.3437 7.7891 11.5073C6.43161 11.9559 5.07412 12.877 4.47417 13.7617C4.29235 14.0224 4.1348 14.289 4.00146 14.5617C4.4378 13.4285 5.42561 12.1195 6.24374 11.7316C6.59524 11.5619 7.09218 11.3498 7.61941 11.1255C8.47391 10.7498 9.42537 10.3378 10.0435 10.0106ZM17.0128 4.49571C17.7037 4.53208 18.3642 4.90174 18.8187 5.24718C17.7502 4.92106 16.6272 4.81185 15.5159 4.92599C15.8735 4.68358 16.3885 4.47147 17.0067 4.50178L17.0128 4.49571ZM9.5951 21.9491C10.5608 21.8049 11.4571 21.362 12.1585 20.6825C12.8188 20.0926 13.3139 19.3406 13.5947 18.5009C13.0737 18.6341 12.7706 19.0281 12.4252 19.4766C11.8555 20.2159 11.1767 21.0946 9.2678 21.2038C7.78305 21.2886 6.51645 20.5614 5.57106 19.6887L5.67409 19.9675C5.80338 20.3573 6.01547 20.7146 6.29582 21.0148C6.57615 21.315 6.9181 21.551 7.29823 21.7067C8.04969 21.9795 8.81933 22.0643 9.5951 21.9491ZM4.08026 18.2099C4.0511 18.0518 4.03287 17.8919 4.0257 17.7313C4.2863 18.204 4.71658 18.8221 5.28623 19.4099C5.29709 19.7951 5.35406 20.1776 5.45592 20.5492C5.41956 20.5916 5.01958 20.1674 4.79536 19.8463C4.44518 19.3569 4.20157 18.7994 4.08026 18.2099Z" fill="white"/>
</svg>

<svg xmlns="http://www.w3.org/2000/svg" width="24" height="24" fill="none" viewBox="0 0 24 24">
    <path fill="#fff" d="M9.595 21.95a4.7 4.7 0 0 0 2.564-1.267 5.1 5.1 0 0 0 1.442-2.206c.327-.964.412-1.612.412-3.345v-1.334h.418c.994 0 2.606-.181 3.443-.387a5 5 0 0 0 1.72-.655c2.085-1.351 2.843-3.333 2.164-5.654-.097-.34-.133-.364-.2-.146a9.7 9.7 0 0 1-.654 1.649 5.5 5.5 0 0 1-3.249 2.848c-.872.29-1.497.382-3.012.436l-.715.03-.03-.242a18 18 0 0 1-.006-1.418c.018-1 .036-1.254.115-1.594.327-1.43 1.018-2.315 2.109-2.69.255-.085.424-.11.86-.122.304-.012.534-.042.51-.06-.085-.085-.71-.17-1.412-.2a5.35 5.35 0 0 0-2.419.363c-.557.206-.878.412-1.018.655a5.7 5.7 0 0 0-.563 1.776c-.091.4-.158 1.702-.121 2.672l.03.885-.776.024c-3.612.14-5.909 1.127-6.77 2.909a4 4 0 0 0-.423 2.145c0 .582.012.922.066 1.188.11.57.346 1.091.715 1.636.225.322.625.746.667.703a9.2 9.2 0 0 1-.157-2.648c.06-.388.2-.836.339-1.151.06-.122.109-.243.109-.261 0-.109.57-.836.885-1.127a5.6 5.6 0 0 1 2.957-1.352c.43-.072 2.4-.206 2.442-.157.061.048.122 1.29.097 1.842-.03.727-.2 1.758-.345 2.121-.23.564-.454.91-.842 1.285a2.63 2.63 0 0 1-1.934.824c-.503 0-.787-.06-1.284-.29a3.2 3.2 0 0 1-1.152-.928l-.206-.303c-.133-.182-.309-.727-.345-1.067l-.037-.315-.09.176a5 5 0 0 0-.243.576c-.145.394-.151.418-.145 1.09 0 .68 0 .685.163 1.104a2.85 2.85 0 0 0 1.624 1.739 4.65 4.65 0 0 0 2.297.242m-6.2-3.982c-.181-1.473.182-2.897 1.08-4.206.605-.885 1.957-1.806 3.32-2.254.467-.158 1.618-.48 2.54-.71l.563-.139.049-.218c.375-1.733.672-2.848.89-3.297l.122-.303c.303-.745 1.018-1.685 1.678-2.206a6.9 6.9 0 0 1 2.91-1.303 7.6 7.6 0 0 1 1.836-.066c.218.024.406.036.418.024a3 3 0 0 0-.606-.533 4.8 4.8 0 0 0-1.915-.734 5.4 5.4 0 0 0-2.606.406c-.764.34-1.66 1.03-2.218 1.697a7.8 7.8 0 0 0-1.449 2.885c-.078.29-.527 2.2-.527 2.23 0 .055-.503.23-1.273.442a13.2 13.2 0 0 0-3.381 1.358c-.473.26-.905.586-1.285.97a5.2 5.2 0 0 0-1.364 2.06l-.12.424a5.6 5.6 0 0 0 0 1.497l.12.448c.085.34.437 1.049.667 1.37.182.255.558.649.588.618.012-.006 0-.218-.036-.466zM21.414 6.41c-.06-.352-.71-1.11-1.382-1.606a4.76 4.76 0 0 0-2.976-1.024 4.24 4.24 0 0 0-2.03.46c-.382.182-.982.588-1.188.8-.12.121-.109.134.225.067a10.6 10.6 0 0 1 1.818-.194c1.654-.06 2.745.152 4.042.776.448.218 1.37.788 1.37.842 0 .018.036.036.072.036.06 0 .067-.03.049-.157"/>
    <path fill="#fff" d="M3.468 16.07a5.8 5.8 0 0 0-.072 1.898c.03.248.048.46.036.466-.03.03-.406-.363-.588-.618a5.7 5.7 0 0 1-.666-1.37l-.116-.405-.012-.043a3.7 3.7 0 0 1-.048-.727 2.87 2.87 0 0 1 1.466.8m5.163-2.461c3.322-.46 4.23-.248 3.485.97a3.6 3.6 0 0 0-.079-.727c-.042-.049-2.012.085-2.442.157a5.6 5.6 0 0 0-2.957 1.352 4.9 4.9 0 0 0-.885 1.127c0 .024-.049.14-.11.26-.072-1.108.437-2.787 2.988-3.139m5.382.994v-.812h.418c.994 0 2.606-.182 3.442-.382a5 5 0 0 0 1.721-.654 5.35 5.35 0 0 0 1.97-2.121c-.273-.121-.909.351-1.606.878-.515.388-1.066.806-1.527 1.018-.66.304-1.812.503-2.818.68-.976.169-1.818.314-1.97.508-.176.243.091.606.364.885zM13.595 4.06a5.3 5.3 0 0 1 1.672-.351 6.8 6.8 0 0 0-1.63.927 6 6 0 0 0-1.072 1.158c-.049-.522.103-1.406 1.03-1.734m-3.552 5.952c.443-.23.776-.182 1.006-.037l-.102.467-.049.218-.564.14c-.92.236-2.072.545-2.545.708-1.357.449-2.715 1.37-3.315 2.255q-.273.39-.473.8c.437-1.133 1.425-2.442 2.243-2.83.351-.17.848-.382 1.375-.606.855-.376 1.806-.788 2.425-1.115m6.97-5.515c.69.036 1.351.406 1.806.751a8.4 8.4 0 0 0-3.303-.321 2.45 2.45 0 0 1 1.49-.424zM9.595 21.949a4.7 4.7 0 0 0 2.563-1.267 5.1 5.1 0 0 0 1.437-2.181c-.521.133-.824.527-1.17.976-.57.739-1.248 1.618-3.157 1.727-1.485.085-2.752-.643-3.697-1.515l.103.279a2.85 2.85 0 0 0 1.624 1.739 4.65 4.65 0 0 0 2.297.242M4.08 18.21a3.5 3.5 0 0 1-.054-.478c.26.473.69 1.091 1.26 1.679.011.385.068.768.17 1.14-.036.042-.436-.383-.66-.704a4.3 4.3 0 0 1-.716-1.636"/>
</svg>
